X:1
T:Dance in 3/4 Time
T:Dance in 3/4 Time
T:from Mikrokosmos 4
T:Bartók Béla, Sz. 107
C:Bartók Béla, Sz. 107
%%score { 1 | 2 }
L:1/8
Q:1/4=126
M:3/4
K:E
V:1 treble nm="Piano" snm="Pno."
V:2 bass 
V:1
"^Allegretto grazioso,"!mf! (=e3 =dc=A | G2 .A2) .F2 | .E2 z2 z2 | (DCDEFG | A4 E2) | (FDFGAB | %6
 c4 G2) |!<(! (AEABcd!<)! |!f! e2 .=c2) .A2 |!mf! z6 | (B3 =A B=d) | (BA .B2) .=c2 | (B3 A B=c) | %13
 (!^!=d6- | d4 ^d2) |!mf! (e3 =d =cA) | (e3 ^d ^c=G) | %17
!f!"^pochiss .allarg." (^ed[Q:1/4=124] c2[Q:1/4=121] F2) |!mf!"^a tempo"[Q:1/4=126] z6 | %19
!p! (A2 .c2)"_cresc." .^d2 | .e2 .=f2 .=g2 |!f! (!^!=a3 f) (fc) | z2 !^!=A4 | !^!F4 !^!C2 | %24
 z2 z!pp! (^F ^DF | D3 ^F DF | D^F D2 F) !breath!z |!p! (=e=dcAGF | z2 .E2) z2 |] %29
V:2
 (^E,,2 .G,,2) .^A,,2 | (^B,,2 .C,2) .D,2 | (E,2 .G,2) .^A,2 | .B,2 z2 z2 | (C,B,,C,D,E,G, | %5
 F,4 C,2) | (^^C,^A,,C,^^D,^E,G, | F,4 C,2) | (=C,2 .E,2) .=F,2 | (B,3 ^A, G,E,) | %10
 (D,2 .F,2) .B,,2 | (B,3 A, =G,E,) | (=D,2 .=F,2) .B,,2 |!p! (E,G,^A,B,!<(!C^D | %14
[K:treble] ^EG^AB^BF)!<)! | (c2 .^E2) .F2 |[K:bass] (G,2 .^B,2) .C2 | (D,2 ^E,2 F,2) | (A,6- | %19
 A,B,A,=G,F,=D, | C,2 .=D,2) .B,,2 |!ped! (!^!^A,,2 .^D,2) .^^F,2 | %22
 !^!!tenuto!^A,4 !^!!tenuto!D2- | !^!!tenuto!D2!ped-up! !^!!tenuto!^^F4 |!mf! ^E6- | E6- | %26
 E2 z2 z2 | (^E,,G,,^A,,^B,,^^C,D, | .E,2) z2 z2 |] %29

